img/icons/namespace_viewer.svg

<svg height="14" viewBox="0 0 14 14" width="14" xmlns="http://www.w3.org/2000/svg"><g fill="none" fill-rule="evenodd"><path d="m.47194294 4.14497341c0-.33148862.24151984-.4812543.55862467-.39195008l.08823248.03032614 4.16742857 2.60463782c.32348571.19570237.58865142.56705825.6384497.95597948l.00840743.13007412-.0006748 1.4580234c-.87513274.72775871-1.47126813 1.61497491-1.47126813 2.33444111 0 .4751855.26004628 1.023547.68876816 1.5508127l-4.03111093-2.5211923c-.32348572-.1951706-.58865144-.56647328-.63844972-.95538919l-.00840743-.13007354zm11.35314286.14535865c.3317802-.20072038.6022113-.092808.6418529.26657288l.0050042.09505106.000665 4.04872455c-.9067821-.67050158-2.0449802-1.15639742-3.12257615-1.15639742-.75981478 0-1.54975901.24157207-2.2674645.61909767l.00023284-.68874902c0-.39087294.23235428-.78174588.54126514-1.01453066l.105592-.07152295zm-10.05942858-2.0994279 3.88-2.02674858c.31898414-.19276105.80908643-.21417895 1.11593025-.06425368l4.41721263 2.67007328c.3289524.19878484.3563651.4586405.0822381.66760381l-.0822381.05564408-4.09600001 2.098837c-.31898414.12868245-.75219754.1429805-1.09696728-.00773585l-.12474701-.06435258-4.096-2.6052287c-.32895238-.19932649-.35636508-.45922729-.08179795-.66819436z" fill="#858585" fill-rule="nonzero"/><g fill="#4ba2f9"><path d="m9.35003175 8.54428313c2.14777405 0 3.88888885 2.12618777 3.88888885 2.72222227 0 .5960344-1.7411148 2.7222222-3.88888885 2.7222222-2.14777403 0-3.88888889-2.1261878-3.88888889-2.7222222 0-.5960345 1.74111486-2.72222227 3.88888889-2.72222227zm0 .77777778c-1.07388702 0-1.94444445.87055739-1.94444445 1.94444449 0 1.073887.87055743 1.9444444 1.94444445 1.9444444 1.07388705 0 1.94444445-.8705574 1.94444445-1.9444444 0-1.0738871-.8705574-1.94444449-1.94444445-1.94444449z"/><path d="m9.37994628 12.433172c.64433222 0 1.16666662-.5223344 1.16666662-1.1666666 0-.6443323-.5223344-1.1666667-1.16666662-1.1666667-.64433221 0-1.16666667.5223344-1.16666667 1.1666667 0 .6443322.52233446 1.1666666 1.16666667 1.1666666z"/></g></g></svg>

<?xml version="1.0" encoding="UTF-8"?>
<svg width="14px" height="14px" viewBox="0 0 14 14" version="1.1" xmlns="http://www.w3.org/2000/svg" xmlns:xlink="http://www.w3.org/1999/xlink">
    <title>namespace_viewer</title>
    <g id="Icon" stroke="none" stroke-width="1" fill="none" fill-rule="evenodd">
        <g id="Visual-Studio" transform="translate(-83.000000, -250.000000)">
            <g id="namespace_viewer" transform="translate(83.000000, 250.000000)">
                <path d="M0.471942937,4.14497341 C0.471942937,3.81348479 0.713462778,3.66371911 1.03056761,3.75302333 L1.11880009,3.78334947 L5.28622866,6.38798729 C5.60971437,6.58368966 5.87488008,6.95504554 5.92467836,7.34396677 L5.93308579,7.47404089 L5.93241099,8.93206429 C5.05727825,9.659823 4.46114286,10.5470392 4.46114286,11.2665054 C4.46114286,11.7416909 4.72118914,12.2900524 5.14991102,12.8173181 L1.11880009,10.2961258 C0.795314366,10.1009552 0.530148651,9.72965252 0.480350365,9.34073661 L0.471942937,9.21066307 L0.471942937,4.14497341 Z M11.8250858,4.29033206 C12.156866,4.08961168 12.4272971,4.19752406 12.4669387,4.55690494 L12.4719429,4.651956 L12.4726079,8.70068055 C11.5658258,8.03017897 10.4276277,7.54428313 9.35003175,7.54428313 C8.59021697,7.54428313 7.80027274,7.7858552 7.08256725,8.1633808 L7.08280009,7.47463178 C7.08280009,7.08375884 7.31515437,6.6928859 7.62406523,6.46010112 L7.72965723,6.38857817 L11.8250858,4.29033206 Z M1.76565722,2.19090416 L5.64565722,0.164155581 C5.96464136,-0.0286054724 6.45474365,-0.0500233673 6.76158747,0.0999018967 L11.1788001,2.76997518 C11.5077525,2.96876002 11.5351652,3.22861568 11.2610382,3.43757899 L11.1788001,3.49322307 L7.08280009,5.59206007 C6.76381595,5.72074252 6.33060255,5.73504057 5.98583281,5.58432422 L5.8610858,5.51997164 L1.7650858,2.91474294 C1.43613342,2.71541645 1.40872072,2.45551565 1.68328785,2.24654858 L1.76565722,2.19090416 Z" id="形状" fill="#858585" fill-rule="nonzero"></path>
                <path d="M9.35003175,8.54428313 C11.4978058,8.54428313 13.2389206,10.6704709 13.2389206,11.2665054 C13.2389206,11.8625398 11.4978058,13.9887276 9.35003175,13.9887276 C7.20225772,13.9887276 5.46114286,11.8625398 5.46114286,11.2665054 C5.46114286,10.6704709 7.20225772,8.54428313 9.35003175,8.54428313 Z M9.35003175,9.32206091 C8.27614473,9.32206091 7.4055873,10.1926183 7.4055873,11.2665054 C7.4055873,12.3403924 8.27614473,13.2109498 9.35003175,13.2109498 C10.4239188,13.2109498 11.2944762,12.3403924 11.2944762,11.2665054 C11.2944762,10.1926183 10.4239188,9.32206091 9.35003175,9.32206091 Z" id="形状结合" fill="#4BA2F9"></path>
                <path d="M9.37994628,12.433172 C10.0242785,12.433172 10.5466129,11.9108376 10.5466129,11.2665054 C10.5466129,10.6221731 10.0242785,10.0998387 9.37994628,10.0998387 C8.73561407,10.0998387 8.21327961,10.6221731 8.21327961,11.2665054 C8.21327961,11.9108376 8.73561407,12.433172 9.37994628,12.433172 Z" id="椭圆形" fill="#4BA2F9"></path>
            </g>
        </g>
    </g>
</svg>
